X: 10
T:Hanter Dro / An Dro
M:3/2
L:1/8
S:Yann Dour
R:Hanter Dro
K:C
c2 cd e2 c2 d2 d2 |c2 cd e2 c2 d4  :|: M:2/2 gfeg c2e2|(3ded cB A4  |ABcA
GBcd|1c2 de d4   :|2c2 B2 A4    ||
